X:362
T:Love For Love. (p)1696.PLFD.362
M:4/4
L:1/4
Q:1/2=90
S:Playford, Dancing Master,9th Ed,1st Supp.,1696.
O:England
N:"Danc'd in the play".
H:1696.
Z:Chris Partington
K:G
d|gGB/c/d|d>efA|A/B/cc>d|e/f/g/e/d>c|
B/c/d/B/A>G|F/G/A/B/ A/G/F/E/|D3:|
|A|A/B/DFA|B/c/EGB|ef/g/Be|e3f/g/|aAA>B|
c/B/c/d/e>=f|eEE>F|G/F/G/A/Bd|gG(B/c/d)|g3|]
